X:1
T:Song of the Mira
M:3/4
L:1/4
K:D
 A| AD/2-D/2 D| G/2 F- F/2 D| BG/2-G/2 G/2A/2| A3/2- A3/2| A3/2- A3/2|\
 AE/2-E/2 E| F/2 D- D/2 D| G F/2- F D/2| E3/2- E A/2| AD/2-D/2 D| G/2 F- F/2 D|\
 B/2 G- G/2 G| A3/2- A/2 A| d/2 A- A/2 F| G/2 F- F/2 E| D3/2- D3/2|\
 D3/2- D3/2| B3/2- B3/2| BB/2-B/2 B| BA/2-A/2 G| A A/2- A A/2| AG/2-G/2 F|\
 G G/2- G G/2| FE/2-E/2 D| E3/2- E3/2| BB/2-B/2 B| B3/2 A/2 G| A/2 A- A A/2|\
